brandFactory_export/3.Masa/Bandera_3Masa.svg

<?xml version="1.0" encoding="UTF-8"?>
<svg width="24px" height="24px" viewBox="0 0 24 24" version="1.1" xmlns="http://www.w3.org/2000/svg" xmlns:xlink="http://www.w3.org/1999/xlink">
    <title>3.Masa/Bandera_3Masa</title>
    <g id="Symbols" stroke="none" stroke-width="1" fill="none" fill-rule="evenodd">
        <g id="3.Masa/Bandera_3Masa" fill="#5CB615" fill-rule="nonzero">
            <path d="M18.5310924,6.55798319 C18.4537815,6.48403361 18.4504202,6.36302521 18.5243697,6.28571429 L22.292437,2.52436975 C22.6588235,2.05378151 22.7193277,1.41176471 22.4537815,0.877310924 C22.1882353,0.339495798 21.6403361,-6.26668856e-16 21.0420168,0.00333661172 L3.58991597,0.00333661172 C2.71932773,0.00333661172 2.01344538,0.705882353 2.01344538,1.5697479 L2.01344538,22.8638655 C2.01344538,23.2436975 2.32268908,23.5529412 2.70588235,23.5529412 C3.08907563,23.5529412 3.39831933,23.2436975 3.39831933,22.8638655 L3.39831933,12.8504202 L21.0386555,12.8504202 C21.6436975,12.8504202 22.1848739,12.5142857 22.4504202,11.9764706 C22.7193277,11.4352941 22.6554622,10.8067227 22.2319328,10.2655462 C22.2352941,10.2655462 18.5310924,6.55798319 18.5310924,6.55798319 Z" id="Path"></path>
        </g>
    </g>
</svg>

<svg width="24" height="24" viewBox="0 0 24 24" xmlns="http://www.w3.org/2000/svg"><path d="M18.531 6.558a.192.192 0 01-.007-.272l3.768-3.762c.367-.47.427-1.112.162-1.647a1.566 1.566 0 00-1.412-.874H3.59c-.87 0-1.577.703-1.577 1.567v21.294c0 .38.31.689.693.689a.69.69 0 00.692-.69V12.85h17.64c.606 0 1.147-.336 1.412-.874.27-.54.205-1.17-.218-1.71.003 0-3.7-3.708-3.7-3.708z" fill="#5CB615" fill-rule="nonzero"/></svg>
